src/icons/file-properties.svg

<?xml version="1.0" encoding="UTF-8" standalone="no"?>
<svg
   version="1.2"
   viewBox="0 0 16 16"
   width="16"
   height="16"
   id="svg1"
   sodipodi:docname="properties.svg"
   inkscape:version="1.4 (e7c3feb100, 2024-10-09)"
   xmlns:inkscape="http://www.inkscape.org/namespaces/inkscape"
   xmlns:sodipodi="http://sodipodi.sourceforge.net/DTD/sodipodi-0.dtd"
   xmlns="http://www.w3.org/2000/svg"
   xmlns:svg="http://www.w3.org/2000/svg">
  <defs
     id="defs1" />
  <sodipodi:namedview
     id="namedview1"
     pagecolor="#505050"
     bordercolor="#eeeeee"
     borderopacity="1"
     inkscape:showpageshadow="0"
     inkscape:pageopacity="0"
     inkscape:pagecheckerboard="0"
     inkscape:deskcolor="#505050"
     inkscape:zoom="34.5"
     inkscape:cx="8"
     inkscape:cy="8"
     inkscape:window-width="1326"
     inkscape:window-height="755"
     inkscape:window-x="1300"
     inkscape:window-y="52"
     inkscape:window-maximized="0"
     inkscape:current-layer="svg1" />
  <title
     id="title1">square-svg</title>
  <style
     id="style1">
		.s0 { fill: #f5aa52 } 
		.s1 { fill: #8080a0 } 
	</style>
  <path
     id="path1"
     class="s0"
     d="M 6 2 C 4.6 2 3.9003906 2.0007814 3.4003906 2.3007812 C 2.9003906 2.5007815 2.5007814 2.9003906 2.3007812 3.4003906 C 2.0007816 3.9003906 2 4.6 2 6 L 2 10 C 2 11.4 2.0007814 12.099609 2.3007812 12.599609 C 2.5007815 13.099609 2.9003906 13.499219 3.4003906 13.699219 C 3.9003906 13.999219 4.6 14 6 14 L 10 14 C 11.4 14 12.099609 13.999219 12.599609 13.699219 C 13.099609 13.499219 13.499219 13.099609 13.699219 12.599609 C 13.999219 12.099609 14 11.4 14 10 L 14 6 C 14 4.6 13.999219 3.9003906 13.699219 3.4003906 C 13.499219 2.9003906 13.099609 2.5007814 12.599609 2.3007812 C 12.099609 2.0007815 11.4 2 10 2 L 8.9003906 2 C 8.9003906 2.5 8.5 2.9003906 8 2.9003906 C 7.5 2.9003906 7.0996094 2.5 7.0996094 2 L 6 2 z M 5.8007812 4.3007812 L 10.300781 4.3007812 C 10.700781 4.3007812 11 4.6 11 5 C 11 5.4 10.700781 5.8007814 10.300781 5.8007812 L 5.8007812 5.8007812 C 5.3007812 5.8007812 5 5.4 5 5 C 5 4.6 5.3007813 4.3007813 5.8007812 4.3007812 z M 5.6992188 7.3007812 L 5.8007812 7.3007812 L 10.199219 7.3007812 C 10.699219 7.3007812 11 7.6 11 8 C 11 8.4 10.699219 8.8007812 10.199219 8.8007812 L 5.6992188 8.8007812 C 5.2992187 8.8007812 5 8.4 5 8 C 5 7.6 5.2992187 7.3007814 5.6992188 7.3007812 z M 5.6992188 10.300781 L 7.6992188 10.300781 L 8.3007812 10.300781 C 8.7007813 10.300781 9 10.6 9 11 C 9 11.4 8.7007812 11.699219 8.3007812 11.699219 L 7.6992188 11.699219 L 5.6992188 11.699219 C 5.2992187 11.699219 5 11.4 5 11 C 5 10.6 5.2992188 10.300781 5.6992188 10.300781 z " />
  <path
     id="Forma 1"
     class="s0"
     d="M 8 0.30078125 C 7.1 0.30078125 6.3007812 1.1 6.3007812 2 C 6.3007813 2.9 7.1 3.6992188 8 3.6992188 C 8.9 3.6992187 9.6992188 2.9 9.6992188 2 C 9.6992188 1.1 8.9 0.30078125 8 0.30078125 z M 8 1.0996094 C 8.5 1.0996094 8.9003906 1.5 8.9003906 2 C 8.9003906 2.5 8.5 2.9003906 8 2.9003906 C 7.5 2.9003906 7.0996094 2.5 7.0996094 2 C 7.0996094 1.5 7.5 1.0996094 8 1.0996094 z " />
</svg>

<svg xmlns="http://www.w3.org/2000/svg" id="svg1" width="16" height="16" version="1.2"><style id="style1">.s0{fill:#f5aa52}</style><path id="path1" d="M6 2c-1.4 0-2.1 0-2.6.3-.5.2-.9.6-1.1 1.1C2 3.9 2 4.6 2 6v4c0 1.4 0 2.1.3 2.6.2.5.6.9 1.1 1.1.5.3 1.2.3 2.6.3h4c1.4 0 2.1 0 2.6-.3.5-.2.9-.6 1.1-1.1.3-.5.3-1.2.3-2.6V6c0-1.4 0-2.1-.3-2.6-.2-.5-.6-.9-1.1-1.1C12.1 2 11.4 2 10 2H8.9c0 .5-.4.9-.9.9s-.9-.4-.9-.9zm-.2 2.3h4.5c.4 0 .7.3.7.7s-.3.8-.7.8H5.8c-.5 0-.8-.4-.8-.8s.3-.7.8-.7m-.1 3h4.5c.5 0 .8.3.8.7s-.3.8-.8.8H5.7c-.4 0-.7-.4-.7-.8s.3-.7.7-.7m0 3h2.6c.4 0 .7.3.7.7s-.3.7-.7.7H5.7c-.4 0-.7-.3-.7-.7s.3-.7.7-.7" class="s0"/><path id="Forma 1" d="M8 .3c-.9 0-1.7.8-1.7 1.7S7.1 3.7 8 3.7 9.7 2.9 9.7 2 8.9.3 8 .3m0 .8c.5 0 .9.4.9.9s-.4.9-.9.9-.9-.4-.9-.9.4-.9.9-.9" class="s0"/></svg>
